X:1
T:The Spot
L:1/8
M:4/4
I:linebreak $
K:C
V:1 treble 
V:1
 G2 | c>Bc>d e2 d>c | B>cd>e f2 e>d | c>Bc>d e2 d>c | B<d G2 B<d G2 | c>Bc>d e2 d>c |$ %6
 B>cd>e f2 e>d | e>ge>c d>fd>B | c2 c2 c2 :| e>f | g>eg>e c'2 g>e | b>fa>f c'2 b>f |$ %12
 e<g c2 e<g c2 | B<d G2 B<d G2 | g>eg>e c'2 g>e | b>fb>f c'2 b>f | e>ge>c d>fd>B | c2 c2 c2 :| %18
